X: 615
T: Tiao nx
%%abc-version 2.0
%%abcx-abcm2ps-target-version 5.9.1 (29 Sep 2008)
%%abc-creator hum2abc beta
%%abcx-conversion-date 2013/10/02 07:52:30
%%abc-edited-by Helmut Schaffrath
%%humdrum-veritas 647264632
%%humdrum-veritas-data 2834125491
%%continueall 1
%%barnumbers 0
L: 1/8
M: 2/4
K: G
B B/ A/ B A [I:setbarnb 1]| 
B2B2 | 
B B/ A/ B A | 
G2G2 | 
B AB2 | 
A B A E | 
G> A B B | 
A B A E | 
G A G E | 
D Dz2 | 
z e d d | 
z e d d | 
z e d d | 
z e d d |]  



